assets/svg/hand.svg

<?xml version="1.0" encoding="UTF-8" standalone="no"?>
<svg
        xmlns:dc="http://purl.org/dc/elements/1.1/"
        xmlns:cc="http://creativecommons.org/ns#"
        xmlns:rdf="http://www.w3.org/1999/02/22-rdf-syntax-ns#"
        xmlns="http://www.w3.org/2000/svg"
        id="svg6"
        height="39.557907"
        width="28.561806"
        version="1.1">
    <metadata
            id="metadata12">
        <rdf:RDF>
            <cc:Work
                    rdf:about="">
                <dc:format>image/svg+xml</dc:format>
                <dc:type
                        rdf:resource="http://purl.org/dc/dcmitype/StillImage"/>
                <dc:title></dc:title>
            </cc:Work>
        </rdf:RDF>
    </metadata>
    <defs
            id="defs10"/>
    <path
            id="path4"
            style="fill:#ffffff;fill-opacity:1;stroke:#000000;stroke-width:1.73000002;stroke-linejoin:round;stroke-miterlimit:4;stroke-opacity:1"
            d="m 7.931404,38.692909 h 16.078583 l 3.686819,-10.34355 V 16.367203 c 0,-1.666145 -5.427816,-2.851496 -5.427816,-1.945801 V 18.1082 12.782817 c 0,-0.971193 -5.398869,-1.707156 -5.398869,0 v 3.994037 -4.406807 c -0.573718,-0.956195 -5.354332,-1.343658 -5.354332,0 V 17.084093 2.6404066 c -0.191239,-2.28522003 -4.938353,-2.44771503 -5.416439,0 V 24.048061 18.20547 c 0.02267,-1.537788 -5.14447599,-1.703651 -5.23434999,0 v 6.14983 z"/>
</svg>

<?xml version="1.0" encoding="UTF-8" standalone="yes"?>
<svg xmlns="http://www.w3.org/2000/svg" xmlns:xlink="http://www.w3.org/1999/xlink" width="269px" height="371px" viewBox="0 0 269 371" version="1.1">
  <g id="surface1">
    <path style="fill-rule:nonzero;fill:rgb(100%,100%,100%);fill-opacity:1;stroke-width:1.73;stroke-linecap:butt;stroke-linejoin:round;stroke:rgb(0%,0%,0%);stroke-opacity:1;stroke-miterlimit:4;" d="M 7.931469 38.692828 L 24.009954 38.692828 L 27.696924 28.349361 L 27.696924 16.367367 C 27.696924 14.700934 22.269128 13.515563 22.269128 14.421459 L 22.269128 18.108355 L 22.269128 12.782932 C 22.269128 11.811644 16.870069 11.075681 16.870069 12.782932 L 16.870069 16.776791 L 16.870069 12.370176 C 16.296596 11.413882 11.515988 11.026533 11.515988 12.370176 L 11.515988 17.084171 L 11.515988 2.64022 C 11.324414 0.355278 6.57754 0.192841 6.099437 2.64022 L 6.099437 24.048122 L 6.099437 18.205401 C 6.121927 16.667667 0.954839 16.501898 0.864882 18.205401 L 0.864882 24.355502 Z M 7.931469 38.692828 " transform="matrix(9.379528,0,0,9.378656,0.551877,0)"/>
  </g>
</svg>
